src/data/icons/logo-text.svg

<svg xmlns="http://www.w3.org/2000/svg" viewBox="0 0 1171 205">
  <title>Catppuccin Logo Text</title>
  <path id="letter-c1" d="M-0.002,80.396C-0.002,128.396 25.198,157.996 73.998,157.996C100.756,157.996 134.998,146.33 134.998,121.596C134.998,111.196 126.598,102.796 116.398,102.796C96.931,102.796 100.677,127.796 73.998,127.796C55.798,127.796 40.398,113.596 40.398,78.596C40.398,44.796 54.998,30.596 73.998,30.596C99.469,30.596 96.202,52.996 114.598,52.996C124.598,52.996 132.798,44.996 132.798,34.796C132.798,10.696 98.856,0.396 73.998,0.396C28.598,0.396 -0.002,32.996 -0.002,80.396Z" />
  <path id="letter-a" d="M148.198,124.996C148.198,146.396 165.198,158.196 185.398,158.196C199.798,158.196 210.998,154.196 219.598,142.396C220.798,150.796 227.998,157.196 236.798,157.196C246.598,157.196 253.998,149.001 253.998,139.396L253.998,89.196C253.998,55.796 234.798,43.796 203.398,43.796C184.29,43.796 155.198,49.063 155.198,68.196C155.198,77.196 162.398,82.796 171.198,82.796C183.49,82.796 185.998,70.196 202.998,70.196C216.998,70.196 218.198,77.996 218.198,89.596L204.598,89.596C179.798,89.596 148.198,93.396 148.198,124.996ZM184.598,122.796C184.598,110.996 197.398,109.396 206.598,109.396L218.398,109.396L218.398,111.196C218.398,123.996 211.198,134.396 197.598,134.396C190.398,134.396 184.598,130.396 184.598,122.796Z" />
  <path id="letter-t" d="M267.798,58.996C267.798,65.596 273.198,71.196 279.998,71.196L285.598,71.196L285.398,118.996C285.198,144.796 294.198,157.996 320.398,157.996C333.073,157.996 347.598,157.596 347.598,142.796C347.598,135.796 341.598,133.196 333.198,130.796C328.706,129.513 322.398,127.196 322.398,115.796L322.398,71.196L333.398,71.196C340.198,71.196 345.598,65.596 345.598,58.796C345.598,52.196 340.198,46.596 333.398,46.596L321.598,46.596L321.598,32.796C321.598,23.396 313.998,15.796 304.598,15.796C295.598,15.796 287.998,22.996 287.598,31.796L286.798,46.596L279.998,46.596C273.198,46.596 267.798,52.196 267.798,58.996Z" />
  <path id="letter-p1" d="M364.998,183.196C364.998,193.396 373.398,201.796 383.598,201.796C393.798,201.796 402.198,193.396 402.198,183.196L402.198,147.796C406.198,151.396 414.598,157.996 428.998,157.996C457.798,157.996 478.798,135.796 478.798,98.996C478.798,69.196 464.598,44.396 434.798,44.396C415.998,44.396 406.798,52.796 399.198,63.196L399.198,61.996C399.198,52.596 391.598,44.996 381.998,44.996C372.598,44.996 364.998,52.596 364.998,61.996L364.998,183.196ZM401.198,100.996C401.198,79.596 410.198,70.396 421.998,70.396C432.198,70.396 441.398,78.396 441.398,100.996C441.398,123.596 431.998,132.996 421.198,132.996C410.398,132.996 401.198,124.796 401.198,100.996Z" />
  <path id="letter-p2" d="M499.398,183.196C499.398,193.396 507.798,201.796 517.998,201.796C528.198,201.796 536.598,193.396 536.598,183.196L536.598,147.796C540.598,151.396 548.998,157.996 563.398,157.996C592.198,157.996 613.198,135.796 613.198,98.996C613.198,69.196 598.998,44.396 569.198,44.396C550.398,44.396 541.198,52.796 533.598,63.196L533.598,61.996C533.598,52.596 525.998,44.996 516.398,44.996C506.998,44.996 499.398,52.596 499.398,61.996L499.398,183.196ZM535.598,100.996C535.598,79.596 544.598,70.396 556.398,70.396C566.598,70.396 575.798,78.396 575.798,100.996C575.798,123.596 566.398,132.996 555.598,132.996C544.798,132.996 535.598,124.796 535.598,100.996Z" />
  <path id="letter-u" d="M632.798,115.796C632.798,139.396 642.198,158.196 671.198,158.196C688.997,158.196 698.997,147.596 704.397,135.796L704.397,139.996C704.397,149.396 712.197,157.196 721.597,157.196C731.197,157.196 738.997,149.396 738.997,139.996L738.997,63.596C738.997,53.396 730.597,44.996 720.397,44.996C710.197,44.996 701.797,53.396 701.797,63.596L701.797,105.996C701.797,122.196 694.997,130.196 684.797,130.196C678.998,130.196 669.998,126.796 669.998,109.996L669.998,63.596C669.998,53.396 661.598,44.996 651.398,44.996C641.198,44.996 632.798,53.396 632.798,63.596L632.798,115.796Z" />
  <path id="letter-c2" d="M758.997,101.396C758.997,136.196 776.997,158.596 815.197,158.596C835.976,158.596 861.197,151.117 861.197,131.996C861.197,122.396 855.397,116.796 845.997,116.796C831.868,116.796 831.568,131.996 815.397,131.996C804.797,131.996 796.197,123.596 796.197,101.196C796.197,79.596 804.397,70.396 815.397,70.396C831.468,70.396 831.077,83.796 844.997,83.796C853.997,83.796 859.397,78.596 859.397,69.396C859.397,50.692 835.847,43.796 816.797,43.796C778.997,43.796 758.997,69.396 758.997,101.396Z" />
  <path id="letter-c3" d="M874.797,101.396C874.797,136.196 892.797,158.596 930.997,158.596C951.776,158.596 976.997,151.117 976.997,131.996C976.997,122.396 971.197,116.796 961.797,116.796C947.668,116.796 947.368,131.996 931.197,131.996C920.597,131.996 911.997,123.596 911.997,101.196C911.997,79.596 920.197,70.396 931.197,70.396C947.268,70.396 946.876,83.796 960.797,83.796C969.797,83.796 975.197,78.596 975.197,69.396C975.197,50.692 951.647,43.796 932.597,43.796C894.797,43.796 874.797,69.396 874.797,101.396Z" />
  <path id="letter-i" d="M994.997,15.596C994.997,24.196 1002,31.196 1010.6,31.196L1019.8,31.196C1028.4,31.196 1035.4,24.196 1035.4,15.596C1035.4,6.996 1028.4,-0.004 1019.8,-0.004L1010.6,-0.004C1002,-0.004 994.997,6.996 994.997,15.596ZM996.597,138.596C996.597,148.796 1005,157.196 1015.2,157.196C1025.4,157.196 1033.8,148.796 1033.8,138.596L1033.8,63.596C1033.8,53.396 1025.4,44.996 1015.2,44.996C1005,44.996 996.597,53.396 996.597,63.596L996.597,138.596Z" />
  <path id="letter-n" d="M1059.8,138.596C1059.8,148.796 1068.2,157.196 1078.4,157.196C1088.6,157.196 1097,148.796 1097,138.596L1097,97.196C1097,76.396 1107.4,72.596 1115,72.596C1121.4,72.596 1130.8,75.796 1130.8,92.596L1130.8,138.596C1130.8,148.796 1139.2,157.196 1149.4,157.196C1159.6,157.196 1168,148.796 1168,138.596L1168,86.796C1168,61.796 1157.4,44.396 1129.6,44.396C1111,44.396 1099.8,54.396 1094.4,64.996L1094.4,62.196C1094.4,52.796 1086.6,44.996 1077,44.996C1067.6,44.996 1059.8,52.796 1059.8,62.196L1059.8,138.596Z" />
</svg>

<svg xmlns="http://www.w3.org/2000/svg" viewBox="0 0 1171 205">
    <title>Catppuccin Logo Text</title>
    <path
        d="M-0.002,81.396c0,48 25.2,77.6 74,77.6c26.758,0 61,-11.666 61,-36.4c0,-10.4 -8.4,-18.8 -18.6,-18.8c-19.467,0 -15.721,25 -42.4,25c-18.2,0 -33.6,-14.2 -33.6,-49.2c0,-33.8 14.6,-48 33.6,-48c25.471,0 22.204,22.4 40.6,22.4c10,0 18.2,-8 18.2,-18.2c0,-24.1 -33.942,-34.4 -58.8,-34.4c-45.4,0 -74,32.6 -74,80Z" />
    <path
        d="M148.198,124.996c0,21.4 17,33.2 37.2,33.2c14.4,0 25.6,-4 34.2,-15.8c1.2,8.4 8.4,14.8 17.2,14.8c9.8,0 17.2,-8.195 17.2,-17.8l-0,-50.2c-0,-33.4 -19.2,-45.4 -50.6,-45.4c-19.108,0 -48.2,5.267 -48.2,24.4c0,9 7.2,14.6 16,14.6c12.292,0 14.8,-12.6 31.8,-12.6c14,0 15.2,7.8 15.2,19.4l-13.6,0c-24.8,0 -56.4,3.8 -56.4,35.4Zm36.4,-2.2c0,-11.8 12.8,-13.4 22,-13.4l11.8,0l0,1.8c0,12.8 -7.2,23.2 -20.8,23.2c-7.2,0 -13,-4 -13,-11.6Z" />
    <path
        d="M267.798,58.996c-0,6.6 5.4,12.2 12.2,12.2l5.6,0l-0.2,47.8c-0.2,25.8 8.8,39 35,39c12.675,0 27.2,-0.4 27.2,-15.2c-0,-7 -6,-9.6 -14.4,-12c-4.492,-1.283 -10.8,-3.6 -10.8,-15l-0,-44.6l11,0c6.8,0 12.2,-5.6 12.2,-12.4c-0,-6.6 -5.4,-12.2 -12.2,-12.2l-11.8,0l-0,-13.8c-0,-9.4 -7.6,-17 -17,-17c-9,0 -16.6,7.2 -17,16l-0.8,14.8l-6.8,0c-6.8,0 -12.2,5.6 -12.2,12.4Z" />
    <path
        d="M364.998,183.196c-0,10.2 8.4,18.6 18.6,18.6c10.2,0 18.6,-8.4 18.6,-18.6l-0,-35.4c4,3.6 12.4,10.2 26.8,10.2c28.8,0 49.8,-22.2 49.8,-59c-0,-29.8 -14.2,-54.6 -44,-54.6c-18.8,0 -28,8.4 -35.6,18.8l-0,-1.2c-0,-9.4 -7.6,-17 -17.2,-17c-9.4,0 -17,7.6 -17,17l-0,121.2Zm36.2,-82.2c-0,-21.4 9,-30.6 20.8,-30.6c10.2,0 19.4,8 19.4,30.6c-0,22.6 -9.4,32 -20.2,32c-10.8,0 -20,-8.2 -20,-32Z" />
    <path
        d="M499.398,183.196c-0,10.2 8.4,18.6 18.6,18.6c10.2,0 18.6,-8.4 18.6,-18.6l-0,-35.4c4,3.6 12.4,10.2 26.8,10.2c28.8,0 49.8,-22.2 49.8,-59c-0,-29.8 -14.2,-54.6 -44,-54.6c-18.8,0 -28,8.4 -35.6,18.8l-0,-1.2c-0,-9.4 -7.6,-17 -17.2,-17c-9.4,0 -17,7.6 -17,17l-0,121.2Zm36.2,-82.2c-0,-21.4 9,-30.6 20.8,-30.6c10.2,0 19.4,8 19.4,30.6c-0,22.6 -9.4,32 -20.2,32c-10.8,0 -20,-8.2 -20,-32Z" />
    <path
        d="M632.798,115.796c-0,23.6 9.4,42.4 38.4,42.4c17.799,0 27.799,-10.6 33.199,-22.4l0,4.2c0,9.4 7.8,17.2 17.2,17.2c9.6,0 17.4,-7.8 17.4,-17.2l0,-76.4c0,-10.2 -8.4,-18.6 -18.6,-18.6c-10.2,0 -18.6,8.4 -18.6,18.6l0,42.4c0,16.2 -6.8,24.2 -17,24.2c-5.799,0 -14.799,-3.4 -14.799,-20.2l-0,-46.4c-0,-10.2 -8.4,-18.6 -18.6,-18.6c-10.2,0 -18.6,8.4 -18.6,18.6l-0,52.2Z" />
    <path
        d="M758.997,101.396c0,34.8 18,57.2 56.2,57.2c20.779,0 46,-7.479 46,-26.6c0,-9.6 -5.8,-15.2 -15.2,-15.2c-14.129,0 -14.429,15.2 -30.6,15.2c-10.6,0 -19.2,-8.4 -19.2,-30.8c0,-21.6 8.2,-30.8 19.2,-30.8c16.071,0 15.68,13.4 29.6,13.4c9,0 14.4,-5.2 14.4,-14.4c0,-18.704 -23.55,-25.6 -42.6,-25.6c-37.8,0 -57.8,25.6 -57.8,57.6Z" />
    <path
        d="M874.797,101.396c0,34.8 18,57.2 56.2,57.2c20.779,0 46,-7.479 46,-26.6c0,-9.6 -5.8,-15.2 -15.2,-15.2c-14.129,0 -14.429,15.2 -30.6,15.2c-10.6,0 -19.2,-8.4 -19.2,-30.8c0,-21.6 8.2,-30.8 19.2,-30.8c16.071,0 15.679,13.4 29.6,13.4c9,0 14.4,-5.2 14.4,-14.4c0,-18.704 -23.55,-25.6 -42.6,-25.6c-37.8,0 -57.8,25.6 -57.8,57.6Z" />
    <path
        d="M994.997,15.596c0,8.6 7,15.6 15.6,15.6l9.2,0c8.6,0 15.6,-7 15.6,-15.6c0,-8.6 -7,-15.6 -15.6,-15.6l-9.2,0c-8.6,0 -15.6,7 -15.6,15.6Zm1.6,123c0,10.2 8.4,18.6 18.6,18.6c10.2,0 18.6,-8.4 18.6,-18.6l0,-75c0,-10.2 -8.4,-18.6 -18.6,-18.6c-10.2,0 -18.6,8.4 -18.6,18.6l0,75Z" />
    <path
        d="M1059.8,138.596c0,10.2 8.4,18.6 18.6,18.6c10.2,0 18.6,-8.4 18.6,-18.6l0,-41.4c0,-20.8 10.4,-24.6 18,-24.6c6.4,0 15.8,3.2 15.8,20l0,46c0,10.2 8.4,18.6 18.6,18.6c10.2,0 18.6,-8.4 18.6,-18.6l-0,-51.8c-0,-25 -10.6,-42.4 -38.4,-42.4c-18.6,0 -29.8,10 -35.2,20.6l0,-2.8c0,-9.4 -7.8,-17.2 -17.4,-17.2c-9.4,0 -17.2,7.8 -17.2,17.2l0,76.4Z" />
</svg>
